icon/pk/riding.svg

<svg viewBox="0 0 48 48" fill="none" xmlns="http://www.w3.org/2000/svg" height="1em" width="1em">
  <path d="M33 14C35.7614 14 38 11.7614 38 9C38 6.23858 35.7614 4 33 4C30.2386 4 28 6.23858 28 9C28 11.7614 30.2386 14 33 14Z" fill="#2F88FF" stroke="black" stroke-width="4" stroke-miterlimit="2"/>
  <path d="M40.0002 22.9998H32.3702C31.8102 22.9998 31.2702 22.7598 30.8902 22.3498L25.5502 16.5698C24.9002 15.8598 23.8402 15.7098 23.0202 16.2098L15.5702 20.7898C14.9402 21.1798 14.9402 22.0998 15.5702 22.4898L23.0302 27.0598C23.6202 27.4198 23.9902 28.0698 23.9902 28.7698L24.0002 37.9998" stroke="black" stroke-width="4" stroke-miterlimit="2" stroke-linecap="round" stroke-linejoin="round"/>
  <circle cx="36.5" cy="36.5" r="7.5" fill="#2F88FF" stroke="black" stroke-width="4"/>
  <circle cx="11.5" cy="36.5" r="7.5" fill="#2F88FF" stroke="black" stroke-width="4"/>
</svg>

<svg width="48" height="48" fill="none" xmlns="http://www.w3.org/2000/svg"><path d="M33 14a5 5 0 1 0 0-10 5 5 0 0 0 0 10Z" fill="#2F88FF" stroke="#000" stroke-width="4" stroke-miterlimit="2"/><path d="M40 23h-7.63c-.56 0-1.1-.24-1.48-.65l-5.34-5.78a2.01 2.01 0 0 0-2.53-.36l-7.45 4.58a1 1 0 0 0 0 1.7l7.46 4.57c.59.36.96 1.01.96 1.71L24 38" stroke="#000" stroke-width="4" stroke-miterlimit="2" stroke-linecap="round" stroke-linejoin="round"/><circle cx="36.5" cy="36.5" r="7.5" fill="#2F88FF" stroke="#000" stroke-width="4"/><circle cx="11.5" cy="36.5" r="7.5" fill="#2F88FF" stroke="#000" stroke-width="4"/></svg>
